images_sukapura_svg/cmd/sc_insertobject.svg

<svg viewBox="0 0 16 16" xmlns="http://www.w3.org/2000/svg" xmlns:xlink="http://www.w3.org/1999/xlink"><linearGradient id="a" gradientUnits="userSpaceOnUse" x1="83" x2="83" y1="7" y2="0"><stop offset="0" stop-color="#0040dd"/><stop offset="1" stop-color="#0a84ff"/></linearGradient><linearGradient id="b" gradientUnits="userSpaceOnUse" x1="10" x2="11.500001" y1="4" y2="2.499999"><stop offset="0" stop-color="#fff"/><stop offset=".77967989" stop-color="#f1f1f1"/><stop offset="1" stop-color="#d5d5d5"/></linearGradient><radialGradient id="c" cx="10.994179" cy="4.42844" gradientTransform="matrix(1.4 .00000004 -.00000001 1.2 -4.39185 -2.314129)" gradientUnits="userSpaceOnUse" r="5"><stop offset="0" stop-color="#d7d7d7"/><stop offset=".49894297" stop-color="#f7f7f7"/><stop offset="1" stop-color="#fff"/></radialGradient><path d="m3 1v14h10v-11.2949219l-2.695312-2.7050781z" fill="url(#c)"/><path d="m3 0c-.554 0-1 .446-1 1v14c0 .554.446 1 1 1h10c.554 0 1-.446 1-1v-10.5-.8632812l-3.636719-3.6367188h-.863281zm0 1h6v3.5c0 .277.223.5.5.5h3.5v10h-10zm7 0 3 3h-3z" fill="#98989d"/><path d="m10 1 3 3h-3z" fill="url(#b)"/><path d="m4 6c-.7096416 0-1.3986866.2433839-2 .6328125v1.2753906c.1660108-.1680897.3409988-.3315419.2480469-.2539062-.16601.1386554.6887836-.4351507.5273437-.3515625-.1614398.0835882.7457111-.2623931.59375-.2246094s.7781216-.078125.6308594-.078125.7828205.1159087.6308594.078125.7551898.3081976.59375.2246094c-.1614399-.0835882.6933537.4902179.5273437.3515625-.16601-.1386555.6013727.6506416.4433594.453125s.4844742.7855025.3496094.5332031c-.1348649-.2522994.3500731.883994.2519531.5878906s.2039271.9511124.1523438.6269532c-.0515834-.324159.0507812.9783252.0507812.6445312s-.1023646.96869-.0507812.644531c.0515832-.324159-.2504638.923057-.1523438.626953.09812-.296103-.386818.84019-.2519531.587891.1348648-.252299-.5076227.73072-.3496094.533203.1580133-.197516-.6093694.591781-.4433594.453125.16601-.138655-.6887836.435151-.5273437.351563.1614398-.083589-.7457111.262393-.59375.224609s-.7781216.078125-.6308594.078125-.7828205-.115909-.6308594-.078125-.7551898-.308198-.59375-.224609c.1614399.083588-.6933537-.490218-.5273437-.351563.0929519.077636-.0820361-.085816-.2480469-.253906v1.275391c.6013134.389428 1.2903584.632812 2 .632812 1.0908308 0 2.1571267-.530645 2.8808594-1.375.0520697-.060748.0704921-.14528.1191406-.208984v.583984a1.0001 1.0001 0 0 0 1 1h3a1.0001 1.0001 0 0 0 .5-.134766 1.0001 1.0001 0 0 0 .5.134766h2v-9h-2a1.0001 1.0001 0 0 0 -1 1v5h-.943359v-5a1.0001 1.0001 0 0 0 -1.0000004-1h-1.0566406a1.0001 1.0001 0 0 0 -1 1v.5839844c-.0486485-.0637047-.0670709-.1482364-.1191406-.2089844-.7237327-.8443548-1.7900286-1.375-2.8808594-1.375z" fill="#fff" fill-opacity=".784314"/><g fill="url(#a)"><path d="m9.056603 13h1.943397v1h-3v-7h1.056603z"/><path d="m16 7v1h-3v2h2.000021v1h-2.000021l.000472 2h3.003252l-.0069 1h-3.996824v-7h4.000041z"/><path d="m4 7a3 3.5 0 0 0 -3 3.5 3 3.5 0 0 0 3 3.5 3 3.5 0 0 0 3-3.5 3 3.5 0 0 0 -3-3.5zm0 1a2 2.5 0 0 1 2 2.5 2 2.5 0 0 1 -2 2.5 2 2.5 0 0 1 -2-2.5 2 2.5 0 0 1 2-2.5z"/></g></svg>

<?xml version="1.0" encoding="UTF-8" standalone="no"?>
<svg
   xmlns:dc="http://purl.org/dc/elements/1.1/"
   xmlns:cc="http://creativecommons.org/ns#"
   xmlns:rdf="http://www.w3.org/1999/02/22-rdf-syntax-ns#"
   xmlns:svg="http://www.w3.org/2000/svg"
   xmlns="http://www.w3.org/2000/svg"
   xmlns:xlink="http://www.w3.org/1999/xlink"
   xmlns:sodipodi="http://sodipodi.sourceforge.net/DTD/sodipodi-0.dtd"
   xmlns:inkscape="http://www.inkscape.org/namespaces/inkscape"
   viewBox="0 0 16 16"
   version="1.1"
   id="svg22"
   sodipodi:docname="sc_insertobject.svg"
   inkscape:version="0.92.3 (unknown)">
  <metadata
     id="metadata28">
    <rdf:RDF>
      <cc:Work
         rdf:about="">
        <dc:format>image/svg+xml</dc:format>
        <dc:type
           rdf:resource="http://purl.org/dc/dcmitype/StillImage" />
        <dc:title></dc:title>
      </cc:Work>
    </rdf:RDF>
  </metadata>
  <defs
     id="defs26">
    <linearGradient
       gradientTransform="translate(75,-7)"
       id="a-367"
       gradientUnits="userSpaceOnUse"
       x1="14"
       x2="13.79661"
       y1="22"
       y2="2.1355929">
      <stop
         offset="0"
         stop-color="#0040dd"
         id="stop2206" />
      <stop
         offset="1"
         stop-color="#0a84ff"
         id="stop2208" />
    </linearGradient>
    <linearGradient
       inkscape:collect="always"
       xlink:href="#a-367"
       id="linearGradient1563"
       x1="8"
       y1="14"
       x2="8"
       y2="7"
       gradientUnits="userSpaceOnUse" />
  </defs>
  <sodipodi:namedview
     pagecolor="#ffffff"
     bordercolor="#666666"
     borderopacity="1"
     objecttolerance="10"
     gridtolerance="10"
     guidetolerance="10"
     inkscape:pageopacity="0"
     inkscape:pageshadow="2"
     inkscape:window-width="1366"
     inkscape:window-height="706"
     id="namedview24"
     showgrid="true"
     inkscape:zoom="14.75"
     inkscape:cx="7.9298065"
     inkscape:cy="11.43969"
     inkscape:window-x="0"
     inkscape:window-y="0"
     inkscape:window-maximized="1"
     inkscape:current-layer="svg22">
    <inkscape:grid
       type="xygrid"
       id="grid1510" />
  </sodipodi:namedview>
  <linearGradient
     id="a"
     gradientUnits="userSpaceOnUse"
     x1="10"
     x2="11.5000006"
     y1="4"
     y2="2.4999994">
    <stop
       offset="0"
       stop-color="#fff"
       id="stop2" />
    <stop
       offset=".77967989"
       stop-color="#f1f1f1"
       id="stop4" />
    <stop
       offset="1"
       stop-color="#d5d5d5"
       id="stop6" />
  </linearGradient>
  <radialGradient
     id="b"
     cx="10.994179"
     cy="4.42844"
     gradientTransform="matrix(1.4 .00000004 -.00000001 1.2 -4.39185 -2.314129)"
     gradientUnits="userSpaceOnUse"
     r="5">
    <stop
       offset="0"
       stop-color="#d7d7d7"
       id="stop9" />
    <stop
       offset=".49894297"
       stop-color="#f7f7f7"
       id="stop11" />
    <stop
       offset="1"
       stop-color="#fff"
       id="stop13" />
  </radialGradient>
  <g
     id="g838">
    <path
       id="path16"
       fill="url(#b)"
       d="m3 1v14h10v-11.2949219l-2.695312-2.7050781z" />
    <path
       id="path18"
       fill="#98989d"
       d="m3 0c-.554 0-1 .446-1 1v14c0 .554.446 1 1 1h10c.554 0 1-.446 1-1v-10.5-.8632812l-3.636719-3.6367188h-.863281zm0 1h6v3.5c0 .277.223.5.5.5h3.5v10h-10zm7 0 3 3h-3z" />
    <path
       id="path20"
       fill="url(#a)"
       d="m10 1 3 3h-3z" />
  </g>
  <path
     style="fill:#ffffff;fill-opacity:0.78431374"
     d="M 4 6 C 3.2903584 6 2.6013134 6.2433839 2 6.6328125 L 2 7.9082031 C 2.1660108 7.7401134 2.3409988 7.5766612 2.2480469 7.6542969 C 2.0820369 7.7929523 2.9368305 7.2191462 2.7753906 7.3027344 C 2.6139508 7.3863226 3.5211017 7.0403413 3.3691406 7.078125 C 3.2171795 7.1159087 4.1472622 7 4 7 C 3.8527378 7 4.7828205 7.1159087 4.6308594 7.078125 C 4.4788983 7.0403413 5.3860492 7.3863226 5.2246094 7.3027344 C 5.0631695 7.2191462 5.9179631 7.7929523 5.7519531 7.6542969 C 5.5859431 7.5156414 6.3533258 8.3049385 6.1953125 8.1074219 C 6.0372992 7.9099053 6.6797867 8.8929244 6.5449219 8.640625 C 6.410057 8.3883256 6.894995 9.524619 6.796875 9.2285156 C 6.698755 8.9324122 7.0008021 10.179628 6.9492188 9.8554688 C 6.8976354 9.5313098 7 10.833794 7 10.5 C 7 10.166206 6.8976354 11.46869 6.9492188 11.144531 C 7.000802 10.820372 6.698755 12.067588 6.796875 11.771484 C 6.894995 11.475381 6.410057 12.611674 6.5449219 12.359375 C 6.6797867 12.107076 6.0372992 13.090095 6.1953125 12.892578 C 6.3533258 12.695062 5.5859431 13.484359 5.7519531 13.345703 C 5.9179631 13.207048 5.0631695 13.780854 5.2246094 13.697266 C 5.3860492 13.613677 4.4788983 13.959659 4.6308594 13.921875 C 4.7828205 13.884091 3.8527378 14 4 14 C 4.1472622 14 3.2171795 13.884091 3.3691406 13.921875 C 3.5211017 13.959659 2.6139508 13.613677 2.7753906 13.697266 C 2.9368305 13.780854 2.0820369 13.207048 2.2480469 13.345703 C 2.3409988 13.423339 2.1660108 13.259887 2 13.091797 L 2 14.367188 C 2.6013134 14.756616 3.2903584 15 4 15 C 5.0908308 15 6.1571267 14.469355 6.8808594 13.625 C 6.9329291 13.564252 6.9513515 13.47972 7 13.416016 L 7 14 A 1.0001 1.0001 0 0 0 8 15 L 11 15 A 1.0001 1.0001 0 0 0 11.5 14.865234 A 1.0001 1.0001 0 0 0 12 15 L 14 15 L 14 6 L 12 6 A 1.0001 1.0001 0 0 0 11 7 L 11 12 L 10.056641 12 L 10.056641 7 A 1.0001 1.0001 0 0 0 9.0566406 6 L 8 6 A 1.0001 1.0001 0 0 0 7 7 L 7 7.5839844 C 6.9513515 7.5202797 6.9329291 7.435748 6.8808594 7.375 C 6.1571267 6.5306452 5.0908308 6 4 6 z "
     id="path1512" />
  <g
     style="fill:url(#linearGradient1563);fill-opacity:1"
     id="g12">
    <path
       inkscape:connector-curvature="0"
       d="M 9.056603,13 H 11 v 1 H 8 V 7 h 1.056603 z"
       id="path6"
       style="fill-opacity:1.0;fill:url(#linearGradient1563)" />
    <path
       inkscape:connector-curvature="0"
       d="m 16,7 v 1 h -3 v 2 h 2.000021 v 1 H 13 l 4.72e-4,2 h 3.003252 l -0.0069,1 H 12 V 7 h 4.000041 z"
       id="path8"
       style="fill-opacity:1.0;fill:url(#linearGradient1563)" />
    <path
       inkscape:connector-curvature="0"
       d="M 4,7 A 3,3.5 0 0 0 1,10.5 3,3.5 0 0 0 4,14 3,3.5 0 0 0 7,10.5 3,3.5 0 0 0 4,7 Z M 4,8 A 2,2.5 0 0 1 6,10.5 2,2.5 0 0 1 4,13 2,2.5 0 0 1 2,10.5 2,2.5 0 0 1 4,8 Z"
       id="path10"
       style="fill-opacity:1.0;fill:url(#linearGradient1563)" />
  </g>
</svg>
